X: 1
T: Lochalsh Reel
T: 8x40R 3C (Pat Burnett, Sky 2)
P: The Lochalsh Reel
C: Colin Dewar
C: from John Chambers
R: reel
Z: 2011 John Chambers <jc:trillian.mit.edu>
M: C|
L: 1/8
K: D
(3ABc | "D"d2d2 "A7"BAFE | "D"DEFD "A7"EDB,C | "D"DEFA "Bm"BAFA | "E7"defd "A"e2de |"D"f2Ad "G"B2GB |
 "D"AFED "A7"E2dB | "D"AFdF "Em"EDB,F | "A7"EDB,A, "D"D2 ||dc |"G"B2BA Bdcd | "D"Adcd Fdcd |
 "A"cA^GA eAGA | "D"fedf "A7"e2dc |"Bm"B2BA Bdcd | "D"Adcd "(A7)"Fdcd | "D"AFdF "G"EDB,F | "A7"EDB,A, "D"D2 |]

